X:4003
T:DeLaney, Dinny
M:6/8
L:1/8
K:D Mixolydian
A2D DED|A2G E2G|A2B G2A|E2G GFG|!
A2D DED|c2d e2d|dcA AGE|G2A GED:|!
dcA AGE|c3 ABc|dcA AGE|G2A GED|!
dcA AGE|c2d e2d|dcA AGE|G2A GED:|!
